!!!!SEGMENT: pl-wnifc--6828-n_oginski-michal-kleofas--les-adieux-a-la-patrie.krn
!!!cenid: 18xx:3971
!!!COM: Ogiński, Michał Kleofas
!!!COM-rismID: pe30002379
!!!CDT: 1765/09/25-1833/10/15
!!!CNT:
!!!OTL: Les Adieux à la Patrie
!!!PDT:
!!!AGN:
!!!SMS-siglum: PL-Wnifc
!!!SMS-shelfmark: 6828/n
!!!SMS-shelfwork: W
!!!SMS-variant:
!!!SMS-altvar:
!!!NIFC-rismSourceID: 1001159683
!!!NIFC-rismChildID: 1001159683
!!!NIFC-islandoraID: nifc:213781
!!!URL-pdf-islandora: https://repozytorium.nifc.pl/islandora/object/nifc%3A213781/datastream/PDF/view
!!!URL-scan: https://polish.musicsources.pl/pl/lokalizacje/galeria/druki-muzyczne/16945 @EN{Scan on Polish Music Sources Website} @PL{Skany w portalu Dziedzictwo Muzyki Polskiej w otwartym dostępie}
!!!IIIF:
!!!ONB-nifc:
!!!AIN: 2 piano
!!!key: a
**kern	**kern	**fing	**dynam
*part2	*part1	*part1	*part1
*staff2	*staff1	*	*
*I"Piano.	*I"Piano.	*	*
*'pf	*I'pf	*	*
*ICklav	*ICklav	*	*
*Ipiano	*Ipiano	*	*
*clefF4	*clefG2	*	*
*k[]	*k[]	*	*
*a:	*a:	*	*
*M3/4	*M3/4	*	*
=1	=1	=1	=1
!	!LO:TX:a:B:t=Moderato.	!	!
(8A\L 8c	4.ee\	.	p
8e\	.	.	.
8A\ 8c	.	.	.
8e\	(16dd#X\LL	.	.
.	16ee\JJ)	.	.
8A\ 8c	8ff\L	.	.
8e\J)	8ee\J	.	.
=2	=2	=2	=2
(8A\L 8c	8cc'\L	.	.
8e\	(16cc\L	.	.
.	16b\JJ)	.	.
8A\ 8c	4.a/	.	.
8e\	.	.	.
8A\ 8c	.	.	.
8e\J)	8cc\	.	.
=3	=3	=3	=3
8A\L 8c	(8ee'\L	.	.
8e\	8ee'\J)	.	.
8A\ 8c	(4.aa^\	.	.
8e\J	.	.	.
(8C#X\L 8G 8A	.	.	.
8e\J)	8ee\)	.	.
=4	=4	=4	=4
(8D\L 8F 8A	(8gg'\L	.	.
8d\	8ff#X'\J)	.	.
8D\ 8F 8A	(4.ffn\	.	.
8d\	.	.	.
8D\ 8F 8A	.	.	.
8d\J)	8dd\)	.	.
!!LO:LB:g=original	!	!
=5	=5	=5	=5
.	16qqb/	.	.
(8G#X\L 8d	8.bb^\L	.	.
8e\	.	.	.
.	16aa\Jk	.	.
8E\	8.gg#X^\L	.	.
8e\J)	.	.	.
.	16ff\Jk	.	.
(8G#\L 8d	8.ee^\L	.	.
8e\J)	.	.	.
.	16dd\Jk	.	.
=6	=6	=6	=6
(8A\L 8c	8.ee\L	.	.
8e\	.	.	.
.	16dd\Jk	.	.
8E\	4.cc\	.	.
8e\J)	.	.	.
(8A\L 8c	.	.	.
8e\J)	8a/	.	.
=7	=7	=7	=7
(8D\L 8F 8A	(16b\LL	3	.
.	16cc\	.	.
8B\	16b\	.	.
.	16a\JJ	.	.
8D\ 8F 8A	16b\LL	1	.
.	16dd\	3	.
8B\J)	16ff\	5	.
.	16ee\JJ	.	.
(8E\L 8G#X	16dd\LL	.	.
.	16cc\	.	.
8B\J)	16b\	.	.
.	16cc\JJ)	4	.
=8	=8	=8	=8
(8A\L 8c	(16a\LL	2	.
.	16cc\	1	.
8e\	16ee\	.	.
.	16aa\JJ)	.	.
8E\	(4.ccc^\	.	.
8e\J)	.	.	.
(8A\L 8c	.	.	.
8e\J)	8aa\)	2	.
=9	=9	=9	=9
(8D\L 8F 8A	(16bb\LL	3	f
.	16ccc\	.	.
8B\	16bb\	.	.
.	16aa\JJ	.	.
8D\ 8F 8A	16bb\LL	1	.
.	16ddd\	3	.
8B\J)	16fff\	5	.
.	16eee\JJ	.	.
(8E\L 8G#X	16ddd\LL	.	.
.	16ccc\	.	.
8B\J)	16bb\	.	.
.	16aa\JJ)	4	.
!!LO:LB:g=original	!	!	!
=10	=10	=10	=10
4E\ 4B	(16gg#X\LL	.	.
.	16aa\	.	.
.	16bb\	.	.
.	16gg#\JJ)	.	.
8r	(4dd^\ 4ee 4gg# 4bb	.	sf
8E\ 8B 8d	.	.	.
8A\ 8c	8cc\) 8ee 8aa	.	.
8r	8r	.	.
=11:|!|:	=11:|!|:	=11:|!|:	=11:|!|:
*^	*	*	*
8r	2B\ 2d	8gg#X'\L	.	.
(<8e/L	.	8bb'\J	.	.
8E/	.	4.ee^\ 4.eee	.	.
8e/J)	.	.	.	.
8r	4G#X\ 4B	.	.	.
8e/	.	8ddd\	.	.
=12	=12	=12	=12	=12
8r	2A\ 2c	4.ccc\	.	.
(<8e/L	.	.	.	.
8E/	.	.	.	.
8e/J)	.	(16fff\LL	.	.
.	.	16eee\JJ	.	.
8r	4A\ 4c	16ddd\LL	.	.
.	.	16ccc\	.	.
8e/	.	16bb\	.	.
.	.	16aa\JJ)	.	.
=13	=13	=13	=13	=13
8r	2B\ 2d	(16gg#X\LL	.	.
.	.	16ee\)	.	.
(<8e/L	.	16gg#'\	.	.
.	.	16bb'\JJ	.	.
8E/	.	4.ee^\ 4.eee	.	.
8e/J)	.	.	.	.
8r	4B\ 4d	.	.	.
8e/	.	8ddd\	.	.
=14	=14	=14	=14	=14
8r	2A\ 2c	[4ccc\	.	.
(<8e/L	.	.	.	.
8E/	.	16ccc\LL]	.	.
.	.	16aa'\	.	.
8e/J)	.	16fff'\	.	.
.	.	16eee'\JJ	.	.
8r	4A\ 4c	(16ddd\LL	.	.
.	.	16ccc\)	.	.
[8e/	.	16bb'\	.	.
.	.	16aa'\JJ	.	.
!!LO:LB:g=original	!	!	!	!
=15	=15	=15	=15	=15
8e/]	8E\ 8G#X 8B	(16gg#X\	.	.
.	.	16e/LL	.	.
8r	8ryy	16b/	.	.
.	.	16a/JJ	.	.
4r	4ryy	16g#X\LL	.	.
.	.	16b\	.	.
.	.	16dd\	.	.
.	.	16cc\JJ	.	.
4r	4ryy	16b\LL	.	<
.	.	16dd\	.	.
.	.	16ff\	.	.
.	.	16ee\JJ	.	.
*v	*v	*	*	*
=16	=16	=16	=16
2.r	16dd\LL	.	.
.	16gg#X\	.	.
.	16bb\	.	.
.	16aa\JJ	.	.
.	16gg#\LL	.	.
.	16bb\	.	.
.	16ddd\	.	.
.	16ccc\JJ	.	.
.	16bb\LL	.	.
.	16ddd\	.	.
.	16fff\	.	.
.	16eee\JJ)	.	[[
=17	=17	=17	=17
.	32qqgg#X/LLL	.	.
.	32qqbb/JJJ	.	.
8EE/ 8E	4.ee\ 4.eee	.	.
(8d\L 8f	.	.	.
8c\ 8e	.	.	.
8B\ 8d	(8ee'\L 8eee	.	.
8A\ 8c	8ee'\ 8eee	.	.
8G#X\J) 8B	8ee'\J) 8eee	.	.
=18	=18	=18	=18
!	!LO:TX:i:b:t=ritard.	!	!
8A'\ 8c	4.ee\ 4.eee	.	.
(8c^\L 8e	.	.	.
8B\ 8d	.	.	.
8A\J 8c	(8ee'\L 8eee	.	.
4E\) 4B	8ee'\ 8eee	.	.
.	8ee'\J) 8eee	.	.
=19	=19	=19	=19
!	!LO:TX:a:B:t=a tempo	!	!
(8A\L 8c	4.ee\	.	p
8e\	.	.	.
8A\ 8c	.	.	.
8e\	(16dd#X\LL	.	.
.	16ee\JJ)	.	.
8A\ 8c	8ff\L	.	.
8e\J)	8ee\J	.	.
!!LO:LB:g=original	!	!	!
=20	=20	=20	=20
(8A\L 8c	8cc'\L	.	.
8e\	(16cc\L	.	.
.	16b\JJ)	.	.
8A\ 8c	4.a/	.	.
8e\	.	.	.
8A\ 8c	.	.	.
8e\J)	8cc\	.	.
=21	=21	=21	=21
(8A\L 8c	8ee'\L	.	.
8e\	8ee'\J	.	.
8A\ 8c	4.aa\	.	.
8e\J)	.	.	.
(8C#X\L 8G 8A	.	.	.
8e\J)	8ee\	.	.
=22	=22	=22	=22
(8D\L 8F 8A	(8gg'\L	.	.
8d\	8ff#X'\J)	.	.
8D\ 8F 8A	4.ffn\	.	.
8d\	.	.	.
8D\ 8F 8A	.	.	.
8d\J)	8dd\	.	.
=23	=23	=23	=23
.	16qqb/	.	.
(8G#X\L 8d	8.bb^\L	.	.
8e\	.	.	.
.	16aa\Jk	.	.
8E\	8.gg#X^\L	.	.
8e\J)	.	.	.
.	16ff\Jk	.	.
(8G#\L 8d	8.ee^\L	.	.
8e\J)	.	.	.
.	16dd\Jk	.	.
=24	=24	=24	=24
8A\L 8c	8.ee\L	.	.
8e\	.	.	.
.	16dd\Jk	.	.
8E\	4.cc\	.	.
8e\J	.	.	.
(8A\L 8c	.	.	.
8e\J)	8a/	.	.
!!LO:LB:g=original	!	!	!
=25	=25	=25	=25
(8D\L 8F 8A	(16b\LL	3	.
.	16cc\	4	.
8B\	16b\	.	.
.	16a\JJ	.	.
8D\ 8F 8A	16b\LL	1	.
.	16dd\	.	.
8B\J)	16ff\	.	.
.	16ee\JJ	.	.
(8E\L 8G#X	16dd\LL	.	.
.	16cc\	.	.
8B\J)	16b\	.	.
.	16cc\JJ)	4	.
=26	=26	=26	=26
(8A\L 8c	(16a\LL	2	.
.	16cc\	1	.
8e\	16ee\	.	.
.	16aa\JJ	.	.
8E\	4.ccc^\	.	.
8e\J)	.	.	.
(8A\L 8c	.	.	.
8e\J)	8aa\)	.	.
=27	=27	=27	=27
(8D\L 8F 8A	(16bb\LL	.	.
.	16ccc\	.	.
8B\	16bb\	.	.
.	16aa\JJ	.	.
8D\ 8F 8A	16bb\LL	.	.
.	16ddd\	.	.
8B\J)	16fff\	.	.
.	16eee\JJ	.	.
(8E\L 8G#X	16ddd\LL	.	.
.	16ccc\	.	.
8B\J)	16bb\	.	.
.	16aa\JJ)	.	.
=28	=28	=28	=28
4E\ 4B	(16gg#X\LL	.	.
.	16aa\	.	.
.	16bb\	.	.
.	16gg#\JJ)	.	.
8r	(4dd^<\ 4ee 4gg# 4bb	.	sf
8E\ 8B 8d	.	.	.
!	!LO:TX:b:i:t=Fine.	!	!
8A\ 8c	8cc\) 8ee 8aa	.	.
8r	8r	.	.
!!LO:PB:g=original	!	!	!
=29:|!	=29:|!	=29:|!	=29:|!
!	!LO:TX:a:B:t=Trio.	!	!
.	8qa/	.	.
(8A\L 8c	[4aa\	.	f
8e\	.	.	.
8A\J) 8c	16aa\]	.	.
.	(16ee\LL	.	.
8r	16ff#X\	.	.
.	16gg#X\JJ	.	.
4r	16aa\LL	1	.
.	16bb\	3	.
.	16ccc\	5	.
.	16aa\JJ)	.	.
=30	=30	=30	=30
.	8qb/	.	.
(8E\L 8G#X 8B	[4bb\	.	.
8e\	.	.	.
8E\J) 8G# 8B	16bb\]	.	.
.	(16ee\LL	.	.
8r	16gg#X\	.	.
.	16aa\JJ	1	.
4r	16bb\LL	.	.
.	16ccc\	3	.
.	16ddd\	5	.
.	16bb\JJ)	.	.
=31	=31	=31	=31
.	8qcc/	.	<
(8C\L 8E 8Gn	[4ccc\	.	.
8c\	.	.	.
8C\J) 8E 8G	16ccc\]	.	.
.	(16ggn\LL	2	.
8r	16aa\	1	.
.	16bb\JJ	.	.
4r	16ccc\LL	.	.
.	16ddd\	.	.
.	16eee\	.	.
.	16ccc\JJ)	.	.
=32	=32	=32	=32
.	8qdd/	.	.
(8G\L 8B	[4ddd\	.	.
8d\	.	.	.
8G\J) 8B	16ddd\]	.	.
.	(16gg\LL	2	<
8r	16bb\	1	.
.	16ccc\JJ	.	.
4r	16ddd\LL	.	.
.	16eee\	.	.
.	16fff\	.	.
.	16ddd\JJ)	.	[[
!!LO:LB:g=original	!	!	!
=33	=33	=33	=33
.	8qfff/	.	.
8.c\L	8.eee\L	.	sf
16B\K	16ddd#X\K	.	.
(8c'\	(8eee'\	.	.
8d'\	8fff'\	.	.
8c'\	8eee'\	.	.
8B'\J)	8dddn'\J)	.	.
=34	=34	=34	=34
(8A\L 8c	8ccc'\L	.	.
8e\J	(16ccc\L	.	.
.	16bb\JJ)	.	.
8A\L 8c	4.aa\	.	.
8e\J	.	.	.
8A\L 8c	.	.	.
8e\J)	8ccc\	.	.
=35	=35	=35	=35
(8G#X\L 8B	8bb'\L	.	.
8e\J	(16bb\L	.	.
.	16eee\JJ)	.	.
8G#\L 8B	4.ee\	.	.
8e\J	.	.	.
8G#\L 8B	.	.	.
8e\J)	8gg#X\	.	.
=36	=36	=36	=36
.	8qbb/	.	.
(8A\L 8c	(16aa\LL	.	.
.	16gg#X\	.	.
8e\J	16aa'\	.	.
.	16bb'\JJ)	.	.
8A\L 8c	(16ccc\LL	.	.
.	16bb\	.	.
8e\J	16ccc'\	.	.
.	16ddd'\JJ)	.	.
8A\L 8c	8eee'\L	.	.
8e\J)	8ccc'\J	.	.
=37	=37	=37	=37
(8G#X\L 8B	8bb'\L	.	.
8e\J	(16bb\L	.	.
.	16eee\JJ)	.	.
8G#\L 8B	4.ee\	.	.
8e\J	.	.	.
8G#\L 8B	.	.	.
8e\J)	8gg#X\	.	.
!!LO:LB:g=original	!	!	!
=38	=38	=38	=38
.	8qbb/	.	<
8A\L 8c	(16aa\LL	.	.
.	16gg#X\)	.	.
8E\J 8G#X 8d	16ccc'\	.	.
.	16bb'\JJ	.	[
8r	(4dd\ [4ee (>(4gg# (4bb	.	sf >
8E'\	.	.	.
4AA^\ 4A	8cc\) 8ee]) 8aa)	.	]
.	8r	.	.
=39:|!|:	=39:|!|:	=39:|!|:	=39:|!|:
8CC/L 8C	8e/L 8g 8cc	.	ff
16CC/L 16C	16e/L 16g 16cc	.	.
16CC/JJ 16C	16e/JJ 16g 16cc	.	.
8CC/L 8C	8e/L 8g 8cc	.	.
8CC/J 8C	8e/J 8g 8cc	.	.
16G\LL	8g/L 8b 8dd	.	sf
16A\	.	.	.
16B\	8g/J 8b 8dd	.	.
16G\JJ	.	.	.
=40	=40	=40	=40
8CC/L 8C	8g\L 8cc 8ee	.	.
16CC/L 16C	16g\L 16cc 16ee	.	.
16CC/JJ 16C	16g\JJ 16cc 16ee	.	.
8CC/L 8C	8g\L 8cc 8ee	.	.
8CC/J 8C	8g\J 8cc 8ee	.	.
16G\LL	8g\L 8dd 8ff	.	.
16A\	.	.	.
16B\	8g\J 8dd 8ff	.	.
16G\JJ	.	.	.
=41	=41	=41	=41
8CC/L 8C	8g\L 8ee 8gg	.	.
16CC/L 16C	16g\L 16ee 16gg	.	>
16CC/JJ 16C	16g\JJ 16ee 16gg	.	.
8CC/L 8C	8g\L 8ee 8gg	.	.
8CC/J 8C	8g\J 8ee 8gg	.	.
16G#X\LL	8b\L 8dd 8ff	.	.
16A\	.	.	.
16B\	8b\J 8dd 8ff	.	]]
16G#\JJ	.	.	.
!!LO:LB:g=original	!	!	!
=42	=42	=42	=42
!	!	!	!LO:HP:b:t=diminuendo
8AA\L 8A	8cc/L 8ee	.	>
16AA\L 16A	16e/L 16cc 16ee	.	.
16AA\JJ 16A	16e/JJ 16cc 16ee	.	.
8AA\L 8A	8e/L 8cc 8ee	.	.
8AA\J 8A	8e/J 8cc 8ee	.	.
16G#X\LL	8e/L 8b 8dd	.	.
16A\	.	.	.
16B\	8e/J 8b 8dd	.	.
16G#\JJ	.	.	.
=43	=43	=43	=43
*	*^	*	*
8AA\L 8A	8d/L 8a 8cc	2ryy	.	>
16AA\L 16A	16d/L 16a 16cc	.	.	.
16AA\JJ 16A	16d/JJ 16a 16cc	.	.	.
8AA\L 8A	8d/L 8a 8cc	.	.	.
8AA\J 8A	8d/J 8a 8cc	.	.	]
16G#X\LL	8b/L	4e\	.	.
16A\	.	.	.	.
16B\	8ee/J	.	.	.
16G#\JJ	.	.	.	.
=44	=44	=44	=44	=44
!	!LO:TX:i:b:t=ritard.	!	!	!
8AA\L 8A	8e/L 8a 8cc	2ryy	.	.
16AA\L 16A	16e/L 16a 16cc	.	.	.
16AA\JJ 16A	16e/JJ 16a 16cc	.	.	.
8AA\L 8A	8e/L 8a 8cc	.	.	.
8AA\J 8A	8e/J 8a 8cc	.	.	.
16G#X\LL	8b/L	4e\	.	.
16A\	.	.	.	.
16B\	8e/J	.	.	.
16E\JJ	.	.	.	.
*	*v	*v	*	*
=45	=45	=45	=45
!	!LO:TX:b:B:t=a tempo	!	!
.	8qa/	.	.
(8A\L 8c	[4aa\	.	f
8e\	.	.	.
8A\J) 8c	16aa\]	.	.
.	(16ee\LL	.	.
8r	16ff#X\	.	.
.	16gg#X\JJ	.	.
4r	16aa\LL	1	.
.	16bb\	3	.
.	16ccc\	5	.
.	16aa\JJ)	.	.
!!LO:LB:g=original	!	!	!
=46	=46	=46	=46
.	8qb/	.	.
(8E\L 8G#X 8B	[4bb\	.	.
8e\	.	.	.
8E\J) 8G# 8B	16bb\]	.	.
.	(16ee\LL	.	.
8r	16gg#X\	.	.
.	16aa\JJ	1	.
4r	16bb\LL	.	.
.	16ccc\	3	.
.	16ddd\	5	.
.	16bb\JJ)	.	.
=47	=47	=47	=47
.	8qcc/	.	.
(8C\L 8E 8Gn	[4ccc\	.	.
8c\	.	.	.
8C\J) 8E 8G	16ccc\]	.	.
!	!	!	!
.	(16ggn\LL	2	<
8r	16aa\	1	.
.	16bb\JJ	.	.
4r	16ccc\LL	.	.
.	16ddd\	.	.
.	16eee\	.	.
.	16ccc\JJ)	.	.
=48	=48	=48	=48
.	8qdd/	.	.
(8G\L 8B	[4ddd\	.	.
8d\	.	.	.
8G\J) 8B	16ddd\]	.	<
.	(16gg\LL	2	.
8r	16bb\	1	.
.	16ccc\JJ	.	.
4r	16ddd\LL	.	.
.	16eee\	.	.
.	16fff\	.	.
.	16ddd\JJ)	.	[[
=49	=49	=49	=49
.	8qfff/	.	.
8.c\L	8.eee\L	.	f
16B\K	16ddd#X\K	.	.
(8c'\	(8eee'\	.	.
8d'\	8fff'\	.	.
8c'\	8eee'\	.	.
8B'\J)	8dddn'\J)	.	.
!!LO:LB:g=original	!	!	!
=50	=50	=50	=50
(8A\L 8c	8ccc'\L	.	.
8e\J	(16ccc\L	.	.
.	16bb\JJ)	.	.
8A\L 8c	4.aa\	.	.
8e\J	.	.	.
8A\L 8c	.	.	.
8e\J)	8ccc\	.	.
=51	=51	=51	=51
(8G#X\L 8B	8bb'\L	.	.
8e\J	(16bb\L	.	.
.	16eee\JJ)	.	.
8G#\L 8B	4.ee\	.	.
8e\J	.	.	.
8G#\L 8B	.	.	.
8e\J)	8gg#X\	.	.
=52	=52	=52	=52
.	8qbb/	.	.
(8A\L 8c	(16aa\LL	.	.
.	16gg#X\	.	.
8e\J	16aa'\	.	.
.	16bb'\JJ)	.	.
8A\L 8c	(16ccc\LL	.	.
.	16bb\	.	.
8e\J	16ccc'\	.	.
.	16ddd'\JJ)	.	.
8A\L 8c	(8eee'\L	.	.
8e\J)	8ccc'\J)	.	.
=53	=53	=53	=53
(8G#X\L 8B	8bb'\L	.	.
8e\J	(16bb\L	.	.
.	16eee\JJ)	.	.
8G#\L 8B	4.ee\	.	.
8e\J	.	.	.
8G#\L 8B	.	.	.
8e\J)	8gg#X\	.	.
=54	=54	=54	=54
.	8qbb/	.	<
8A\L 8c	16aa\LL	.	.
.	16gg#X\	.	.
8E\J 8G#X 8d	16ccc'\	.	.
.	16bb'\JJ	.	[
8r	(4dd\ [4ee (>(4gg# (4bb	.	f >
8E'\	.	.	.
!LO:TX:i:b:t=D.C. al fine	!	!	!
4AA\ 4A	8cc\) 8ee]) 8aa)	.	]
.	8r	.	.
=:|!	=:|!	=:|!	=:|!
*-	*-	*-	*-
!!!system-decoration: {(s1,s2)}
!!!RDF**kern: > = above
!!!RDF**kern: < = below
!!!ENC: Andrzej Gręziak
!!!END: 2022-08-05
!!!ENC: Natalia Wrzos
!!!END: 2022-09-09
!!!YEC: Copyright 2022 Narodowy Instytut Fryderyka Chopina (https://polishscores.org)
!!!YEM: License CC-BY-4.0 (https://creativecommons.org/licenses/by/4.0)
